X: 1
T: Lafayette  (C)
M: 6/8
L: 1/8
R: Colonial jig
K: C
|: "C"GEC CEC | GEC "F"CcA | "C"GEC    CEC | "G"FDD D2c |
|  "C"GEC CEC | GEG    c2d | "C"edc "F"AcA | "C"GEC C3 :|
|: "C"gec cec | gec    c2e |    gec    cec | "G"fdd d2e |
|  "C"gec cec | gec "F"def | "C"edc "F"AcA | "C"GEC C3 :|
